src/assets/dark/IconRewardsActive.svg

<svg width="44" height="44" viewBox="0 0 44 44" fill="none" xmlns="http://www.w3.org/2000/svg">
<path fill-rule="evenodd" clip-rule="evenodd" d="M22.0317 43.9902C33.9059 43.9902 43.5317 34.3644 43.5317 22.4902C43.5317 10.6161 33.9059 0.990234 22.0317 0.990234C10.1576 0.990234 0.531738 10.6161 0.531738 22.4902C0.531738 34.3644 10.1576 43.9902 22.0317 43.9902Z" fill="url(#paint0_linear)"/>
<path fill-rule="evenodd" clip-rule="evenodd" d="M22.0317 43.9902C33.9059 43.9902 43.5317 34.3644 43.5317 22.4902C43.5317 10.6161 33.9059 0.990234 22.0317 0.990234C10.1576 0.990234 0.531738 10.6161 0.531738 22.4902C0.531738 34.3644 10.1576 43.9902 22.0317 43.9902Z" fill="url(#paint1_linear)"/>
<path d="M15.5424 17.9754C17.2912 18.5716 19.6095 18.9 22.0702 18.9C24.5308 18.9 26.8491 18.5716 28.598 17.9754C30.462 17.3398 31.4885 16.4482 31.4885 15.4646C31.4885 14.4811 30.462 13.5894 28.598 12.9539C26.8491 12.3577 24.5308 12.0293 22.0702 12.0293C19.6095 12.0293 17.2912 12.3577 15.5424 12.954C13.6784 13.5894 12.6519 14.4811 12.6519 15.4646C12.6519 16.4482 13.6784 17.3398 15.5424 17.9754Z" fill="white" fill-opacity="0.87"/>
<path opacity="0.668271" fill-rule="evenodd" clip-rule="evenodd" d="M30.846 19.2871C30.6983 19.2871 30.5383 19.3371 30.3566 19.4398C30.0885 19.5916 29.7499 19.7081 29.3915 19.8315L29.2875 19.8674C27.3305 20.5441 24.7673 20.9167 22.0702 20.9167C19.3731 20.9167 16.8099 20.5441 14.8529 19.8674C14.2994 19.676 14.1456 19.6158 13.9411 19.5108C13.7332 19.4018 13.5397 19.3465 13.3658 19.3465C12.9891 19.3465 12.7578 19.5992 12.6955 19.8497C12.6665 19.9664 12.6519 20.0855 12.6519 20.2037C12.6519 21.2011 13.6784 22.1054 15.5423 22.7498C17.2912 23.3544 19.6095 23.6875 22.0701 23.6875C24.5308 23.6875 26.8491 23.3544 28.598 22.7498C30.462 22.1054 31.4885 21.2011 31.4885 20.2037C31.4885 20.0485 31.4632 19.8926 31.4126 19.7382C31.2841 19.3458 31.0025 19.2871 30.846 19.2871Z" fill="#B0A8D8" fill-opacity="0.8"/>
<path opacity="0.668271" fill-rule="evenodd" clip-rule="evenodd" d="M30.8461 23.918C30.6984 23.918 30.5384 23.9679 30.3568 24.0707C30.0889 24.2223 29.7506 24.3387 29.3925 24.462L29.2876 24.4982C27.3305 25.1748 24.7673 25.5475 22.0703 25.5475C19.3732 25.5475 16.8101 25.1748 14.8529 24.4982C14.2994 24.3067 14.1456 24.2465 13.9411 24.1415C13.7332 24.0325 13.5397 23.9772 13.3658 23.9772C12.9891 23.9772 12.7578 24.2299 12.6955 24.4804C12.6665 24.5972 12.6519 24.7163 12.6519 24.8345C12.6519 25.8319 13.6784 26.7361 15.5423 27.3806C17.2912 27.9853 19.6095 28.3183 22.0701 28.3183C24.5308 28.3183 26.8491 27.9853 28.598 27.3806C30.462 26.7362 31.4885 25.8319 31.4885 24.8345C31.4885 24.6791 31.4632 24.5232 31.4126 24.369C31.2843 23.9766 31.0026 23.918 30.8461 23.918Z" fill="#B0A8D8" fill-opacity="0.8"/>
<path opacity="0.668271" fill-rule="evenodd" clip-rule="evenodd" d="M30.846 28.5508C30.6983 28.5508 30.5383 28.6007 30.3567 28.7034C30.0883 28.8553 29.7495 28.9718 29.3907 29.0954L29.2875 29.131C27.3305 29.8077 24.7673 30.1804 22.0702 30.1804C19.3731 30.1804 16.8099 29.8077 14.8529 29.131C14.2994 28.9396 14.1456 28.8794 13.9411 28.7744C13.7332 28.6654 13.5397 28.6101 13.3658 28.6101C12.9891 28.6101 12.7578 28.8628 12.6955 29.1133C12.6665 29.23 12.6519 29.3492 12.6519 29.4674C12.6519 30.4647 13.6784 31.369 15.5423 32.0135C17.2912 32.6181 19.6095 32.9511 22.0701 32.9511C24.5308 32.9511 26.8491 32.6181 28.598 32.0135C30.462 31.369 31.4885 30.4648 31.4885 29.4674C31.4885 29.312 31.4632 29.1561 31.4127 29.002C31.2842 28.6094 31.0025 28.5508 30.846 28.5508Z" fill="#B0A8D8" fill-opacity="0.8"/>
<defs>
<linearGradient id="paint0_linear" x1="-13.7745" y1="3.67475" x2="68.6257" y2="51.4227" gradientUnits="userSpaceOnUse">
<stop stop-color="#FFECD0"/>
<stop offset="1" stop-color="#FFD7C6"/>
</linearGradient>
<linearGradient id="paint1_linear" x1="0.531739" y1="9.66632" x2="45.3781" y2="41.3962" gradientUnits="userSpaceOnUse">
<stop stop-color="#6C5BC2"/>
<stop offset="1" stop-color="#5A42AC"/>
</linearGradient>
</defs>
</svg>

<svg width="44" height="44" fill="none" xmlns="http://www.w3.org/2000/svg"><path fill-rule="evenodd" clip-rule="evenodd" d="M22.032 43.99c11.874 0 21.5-9.626 21.5-21.5S33.906.99 22.032.99s-21.5 9.626-21.5 21.5 9.626 21.5 21.5 21.5z" fill="url(#paint0_linear)"/><path fill-rule="evenodd" clip-rule="evenodd" d="M22.032 43.99c11.874 0 21.5-9.626 21.5-21.5S33.906.99 22.032.99s-21.5 9.626-21.5 21.5 9.626 21.5 21.5 21.5z" fill="url(#paint1_linear)"/><path d="M15.542 17.975c1.75.597 4.068.925 6.528.925s4.78-.328 6.528-.925c1.864-.635 2.89-1.527 2.89-2.51 0-.984-1.026-1.876-2.89-2.511-1.749-.596-4.067-.925-6.528-.925-2.46 0-4.779.329-6.528.925-1.864.635-2.89 1.527-2.89 2.51 0 .984 1.026 1.876 2.89 2.511z" fill="#fff" fill-opacity=".87"/><path opacity=".668" fill-rule="evenodd" clip-rule="evenodd" d="M30.846 19.287c-.148 0-.308.05-.49.153-.268.152-.606.268-.965.391l-.103.036c-1.957.677-4.52 1.05-7.218 1.05-2.697 0-5.26-.373-7.217-1.05-.554-.191-.707-.251-.912-.356a1.26 1.26 0 00-.575-.165.671.671 0 00-.67.504 1.47 1.47 0 00-.044.354c0 .997 1.026 1.901 2.89 2.546 1.75.604 4.068.938 6.528.938s4.78-.334 6.528-.938c1.864-.645 2.89-1.549 2.89-2.546a1.49 1.49 0 00-.075-.466c-.129-.392-.41-.45-.567-.45zM30.846 23.918c-.148 0-.308.05-.49.153-.267.151-.605.268-.964.391l-.104.036c-1.957.677-4.52 1.05-7.218 1.05-2.697 0-5.26-.373-7.217-1.05-.554-.191-.707-.252-.912-.357a1.26 1.26 0 00-.575-.164.671.671 0 00-.67.503 1.47 1.47 0 00-.044.354c0 .998 1.026 1.902 2.89 2.547 1.75.604 4.068.937 6.528.937s4.78-.333 6.528-.937c1.864-.645 2.89-1.55 2.89-2.547 0-.155-.025-.31-.075-.465-.129-.392-.41-.451-.567-.451zM30.846 28.55c-.148 0-.308.05-.49.153-.268.152-.607.269-.965.392l-.103.036c-1.957.677-4.52 1.05-7.218 1.05-2.697 0-5.26-.373-7.217-1.05-.554-.191-.707-.252-.912-.357a1.26 1.26 0 00-.575-.164.671.671 0 00-.67.503 1.47 1.47 0 00-.044.354c0 .998 1.026 1.902 2.89 2.547 1.75.604 4.068.937 6.528.937s4.78-.333 6.528-.938c1.864-.644 2.89-1.548 2.89-2.546a1.49 1.49 0 00-.075-.465c-.129-.393-.41-.451-.567-.451z" fill="#B0A8D8" fill-opacity=".8"/><defs><linearGradient id="paint0_linear" x1="-13.774" y1="3.675" x2="68.626" y2="51.423" gradientUnits="userSpaceOnUse"><stop stop-color="#FFECD0"/><stop offset="1" stop-color="#FFD7C6"/></linearGradient><linearGradient id="paint1_linear" x1=".532" y1="9.666" x2="45.378" y2="41.396" gradientUnits="userSpaceOnUse"><stop stop-color="#6C5BC2"/><stop offset="1" stop-color="#5A42AC"/></linearGradient></defs></svg>
